Numix-Circle/48x48/apps/vega.svg

<?xml version="1.0" encoding="UTF-8" standalone="no"?>
<svg
   xmlns:dc="http://purl.org/dc/elements/1.1/"
   xmlns:cc="http://creativecommons.org/ns#"
   xmlns:rdf="http://www.w3.org/1999/02/22-rdf-syntax-ns#"
   xmlns:svg="http://www.w3.org/2000/svg"
   xmlns="http://www.w3.org/2000/svg"
   xmlns:xlink="http://www.w3.org/1999/xlink"
   xmlns:sodipodi="http://sodipodi.sourceforge.net/DTD/sodipodi-0.dtd"
   xmlns:inkscape="http://www.inkscape.org/namespaces/inkscape"
   viewBox="0 0 48 48"
   id="svg2"
   version="1.1"
   inkscape:version="0.48.5 r10040"
   width="100%"
   height="100%"
   sodipodi:docname="vega1.svg">
  <metadata
     id="metadata59">
    <rdf:RDF>
      <cc:Work
         rdf:about="">
        <dc:format>image/svg+xml</dc:format>
        <dc:type
           rdf:resource="http://purl.org/dc/dcmitype/StillImage" />
      </cc:Work>
    </rdf:RDF>
  </metadata>
  <sodipodi:namedview
     pagecolor="#ffffff"
     bordercolor="#666666"
     borderopacity="1"
     objecttolerance="10"
     gridtolerance="10"
     guidetolerance="10"
     inkscape:pageopacity="0"
     inkscape:pageshadow="2"
     inkscape:window-width="1280"
     inkscape:window-height="998"
     id="namedview57"
     showgrid="true"
     showguides="true"
     inkscape:guide-bbox="true"
     inkscape:zoom="2.8284272"
     inkscape:cx="-37.937456"
     inkscape:cy="-37.755075"
     inkscape:window-x="0"
     inkscape:window-y="0"
     inkscape:window-maximized="1"
     inkscape:current-layer="svg2">
    <inkscape:grid
       type="xygrid"
       id="grid3043" />
  </sodipodi:namedview>
  <defs
     id="defs4">
    <linearGradient
       id="linearGradient4408">
      <stop
         style="stop-color:#eb1a19;stop-opacity:1;"
         offset="0"
         id="stop4410" />
      <stop
         style="stop-color:#ed2c2b;stop-opacity:1;"
         offset="1"
         id="stop4412" />
    </linearGradient>
    <linearGradient
       id="linearGradient3764"
       x1="1"
       x2="47"
       gradientUnits="userSpaceOnUse"
       gradientTransform="matrix(0,-1,1,0,-1.5e-6,47.999998)">
      <stop
         stop-color="#380005"
         stop-opacity="1"
         id="stop7" />
      <stop
         offset="1"
         stop-color="#4c0008"
         stop-opacity="1"
         id="stop9" />
    </linearGradient>
    <clipPath
       id="clipPath11">
      <g
         transform="translate(0,-1004.3622)"
         id="g13">
        <path
           d="m -24 13 c 0 1.105 -0.672 2 -1.5 2 -0.828 0 -1.5 -0.895 -1.5 -2 0 -1.105 0.672 -2 1.5 -2 0.828 0 1.5 0.895 1.5 2 z"
           transform="matrix(15.333333,0,0,11.5,414.99999,878.8622)"
           fill="#1890d0"
           id="path15" />
      </g>
    </clipPath>
    <clipPath
       id="clipPath17">
      <g
         transform="translate(0,-1004.3622)"
         id="g19">
        <path
           d="m -24 13 c 0 1.105 -0.672 2 -1.5 2 -0.828 0 -1.5 -0.895 -1.5 -2 0 -1.105 0.672 -2 1.5 -2 0.828 0 1.5 0.895 1.5 2 z"
           transform="matrix(15.333333,0,0,11.5,414.99999,878.8622)"
           fill="#1890d0"
           id="path21" />
      </g>
    </clipPath>
    <linearGradient
       inkscape:collect="always"
       xlink:href="#linearGradient4408"
       id="linearGradient4414"
       x1="1"
       y1="24"
       x2="47"
       y2="24"
       gradientUnits="userSpaceOnUse"
       gradientTransform="matrix(0,-1,1,0,0,48)" />
  </defs>
  <path
     style="opacity:0.05"
     inkscape:connector-curvature="0"
     id="path25"
     d="m 36.31,5 c 5.859,4.062 9.688,10.831 9.688,18.5 0,12.426 -10.07,22.5 -22.5,22.5 -7.669,0 -14.438,-3.828 -18.5,-9.688 1.037,1.822 2.306,3.499 3.781,4.969 4.085,3.712 9.514,5.969 15.469,5.969 12.703,0 23,-10.298 23,-23 0,-5.954 -2.256,-11.384 -5.969,-15.469 C 39.81,7.306 38.132,6.037 36.31,5 z m 4.969,3.781 c 3.854,4.113 6.219,9.637 6.219,15.719 0,12.703 -10.297,23 -23,23 -6.081,0 -11.606,-2.364 -15.719,-6.219 4.16,4.144 9.883,6.719 16.219,6.719 12.703,0 23,-10.298 23,-23 0,-6.335 -2.575,-12.06 -6.719,-16.219 z" />
  <path
     style="opacity:0.1"
     inkscape:connector-curvature="0"
     id="path27"
     d="m 41.28,8.781 c 3.712,4.085 5.969,9.514 5.969,15.469 0,12.703 -10.297,23 -23,23 -5.954,0 -11.384,-2.256 -15.469,-5.969 4.113,3.854 9.637,6.219 15.719,6.219 12.703,0 23,-10.298 23,-23 0,-6.081 -2.364,-11.606 -6.219,-15.719 z" />
  <path
     style="opacity:0.2"
     inkscape:connector-curvature="0"
     id="path29"
     d="M 31.25,2.375 C 39.865,5.529 46,13.792 46,23.505 c 0,12.426 -10.07,22.5 -22.5,22.5 -9.708,0 -17.971,-6.135 -21.12,-14.75 a 23,23 0 0 0 44.875,-7 23,23 0 0 0 -16,-21.875 z" />
  <path
     style="opacity:0.1"
     inkscape:connector-curvature="0"
     id="path53"
     d="m 40.03,7.531 c 3.712,4.084 5.969,9.514 5.969,15.469 0,12.703 -10.297,23 -23,23 C 17.045,46 11.615,43.744 7.53,40.031 11.708,44.322 17.54,47 23.999,47 c 12.703,0 23,-10.298 23,-23 0,-6.462 -2.677,-12.291 -6.969,-16.469 z" />
  <path
     inkscape:connector-curvature="0"
     style="fill:url(#linearGradient4414);fill-opacity:1"
     id="path33"
     d="M 24,1 C 36.703,1 47,11.297 47,24 47,36.703 36.703,47 24,47 11.297,47 1,36.703 1,24 1,11.297 11.297,1 24,1 z" />
  <path
     inkscape:connector-curvature="0"
     style="fill:#d0faff;fill-opacity:1;fill-rule:nonzero;stroke:none"
     d="m 46.8125,21.09375 c -0.207495,-1.641272 -0.590447,-3.235403 -1.125,-4.75 L 44,15.5 41,17 l 0,4 3,1.5 2.8125,-1.40625 z M 41.75,38.625 41,39 l 0,0.5 c 0.257922,-0.282693 0.506267,-0.579661 0.75,-0.875 z M 41,8.5 C 39.795884,7.1802407 38.44864,6.0106586 36.96875,5 L 35,6 l 0,4 3,1.5 3,-1.5 0,-1.5 z m 0,19.5 -3,-1.5 -3,1.5 0,4 3,1.5 3,-1.5 0,-4 z m -6,-11 -3,-1.5 -3,1.5 0,4 3,1.5 3,-1.5 0,-4 z m 0,22 -3,-1.5 -3,1.5 0,4 3,1.5 3,-1.5 0,-4 z M 29,6 26,4.5 23,6 l 0,4 3,1.5 3,-1.5 0,-4 z m 0,22 -3,-1.5 -3,1.5 0,4 3,1.5 3,-1.5 0,-4 z m -6,-11 -3,-1.5 -3,1.5 0,4 3,1.5 3,-1.5 0,-4 z m 0,22 -3,-1.5 -3,1.5 0,4 3,1.5 3,-1.5 0,-4 z M 17,6 14,4.5 11,6 l 0,4 3,1.5 3,-1.5 0,-4 z m 0,22 -3,-1.5 -3,1.5 0,4 3,1.5 3,-1.5 0,-4 z M 11,17 8,15.5 5,17 5,21 8,22.5 11,21 11,17 z M 11,39 8,37.5 6.09375,38.4375 C 7.499367,40.177554 9.151243,41.700896 11,42.96875 L 11,39 z M 5,28 2,26.5 1.1875,26.90625 c 0.273494,2.163313 0.856212,4.223417 1.6875,6.15625 L 5,32 5,28 z"
     id="path3122" />
</svg>

<svg xmlns="http://www.w3.org/2000/svg" viewBox="0 0 48 48"><defs><clipPath><g transform="translate(0,-1004.3622)"><path d="m -24 13 c 0 1.105 -0.672 2 -1.5 2 -0.828 0 -1.5 -0.895 -1.5 -2 0 -1.105 0.672 -2 1.5 -2 0.828 0 1.5 0.895 1.5 2 z" transform="matrix(15.333333,0,0,11.5,414.99999,878.8622)" fill="#1890d0"/></g></clipPath><clipPath><g transform="translate(0,-1004.3622)"><path d="m -24 13 c 0 1.105 -0.672 2 -1.5 2 -0.828 0 -1.5 -0.895 -1.5 -2 0 -1.105 0.672 -2 1.5 -2 0.828 0 1.5 0.895 1.5 2 z" transform="matrix(15.333333,0,0,11.5,414.99999,878.8622)" fill="#1890d0"/></g></clipPath><linearGradient id="linearGradient4414" x1="1" x2="47" gradientUnits="userSpaceOnUse" gradientTransform="matrix(0,-1,1,0,0,48)"><stop stop-color="#eb1a19" stop-opacity="1"/><stop offset="1" stop-color="#ed2c2b" stop-opacity="1"/></linearGradient></defs><path d="m 36.31,5 c 5.859,4.062 9.688,10.831 9.688,18.5 0,12.426 -10.07,22.5 -22.5,22.5 -7.669,0 -14.438,-3.828 -18.5,-9.688 1.037,1.822 2.306,3.499 3.781,4.969 4.085,3.712 9.514,5.969 15.469,5.969 12.703,0 23,-10.298 23,-23 0,-5.954 -2.256,-11.384 -5.969,-15.469 C 39.81,7.306 38.132,6.037 36.31,5 z m 4.969,3.781 c 3.854,4.113 6.219,9.637 6.219,15.719 0,12.703 -10.297,23 -23,23 -6.081,0 -11.606,-2.364 -15.719,-6.219 4.16,4.144 9.883,6.719 16.219,6.719 12.703,0 23,-10.298 23,-23 0,-6.335 -2.575,-12.06 -6.719,-16.219 z" opacity="0.05"/><path d="m 41.28 8.781 c 3.712 4.085 5.969 9.514 5.969 15.469 0 12.703 -10.297 23 -23 23 -5.954 0 -11.384 -2.256 -15.469 -5.969 4.113 3.854 9.637 6.219 15.719 6.219 12.703 0 23 -10.298 23 -23 0 -6.081 -2.364 -11.606 -6.219 -15.719 z" opacity="0.1"/><path d="M 31.25,2.375 C 39.865,5.529 46,13.792 46,23.505 c 0,12.426 -10.07,22.5 -22.5,22.5 -9.708,0 -17.971,-6.135 -21.12,-14.75 a 23,23 0 0 0 44.875,-7 23,23 0 0 0 -16,-21.875 z" opacity="0.2"/><path d="m 40.03,7.531 c 3.712,4.084 5.969,9.514 5.969,15.469 0,12.703 -10.297,23 -23,23 C 17.045,46 11.615,43.744 7.53,40.031 11.708,44.322 17.54,47 23.999,47 c 12.703,0 23,-10.298 23,-23 0,-6.462 -2.677,-12.291 -6.969,-16.469 z" opacity="0.1"/><path d="M 24,1 C 36.703,1 47,11.297 47,24 47,36.703 36.703,47 24,47 11.297,47 1,36.703 1,24 1,11.297 11.297,1 24,1 z" fill="url(#linearGradient4414)" fill-opacity="1"/><path d="m 46.813 21.09 c -0.207 -1.641 -0.59 -3.235 -1.125 -4.75 l -1.688 -0.844 -3 1.5 l 0 4 3 1.5 2.813 -1.406 z m -5.063 17.531 -0.75 0.375 l 0 0.5 c 0.258 -0.283 0.506 -0.58 0.75 -0.875 z m -0.75 -30.12 c -1.204 -1.32 -2.551 -2.489 -4.03 -3.5 l -1.969 1 l 0 4 3 1.5 3 -1.5 0 -1.5 z m 0 19.5 -3 -1.5 -3 1.5 0 4 3 1.5 3 -1.5 0 -4 z m -6 -11 -3 -1.5 -3 1.5 0 4 3 1.5 3 -1.5 0 -4 z m 0 22 -3 -1.5 -3 1.5 0 4 3 1.5 3 -1.5 0 -4 z m -6 -33 -3 -1.5 -3 1.5 l 0 4 3 1.5 3 -1.5 0 -4 z m 0 22 -3 -1.5 -3 1.5 0 4 3 1.5 3 -1.5 0 -4 z m -6 -11 -3 -1.5 -3 1.5 0 4 3 1.5 3 -1.5 0 -4 z m 0 22 -3 -1.5 -3 1.5 0 4 3 1.5 3 -1.5 0 -4 z m -6 -33 -3 -1.5 -3 1.5 l 0 4 3 1.5 3 -1.5 0 -4 z m 0 22 -3 -1.5 -3 1.5 0 4 3 1.5 3 -1.5 0 -4 z m -6 -11 -3 -1.5 -3 1.5 0 4 3 1.5 3 -1.5 0 -4 z m 0 22 -3 -1.5 -1.906 0.938 c 1.406 1.74 3.057 3.263 4.906 4.531 l 0 -3.969 z m -6 -11 -3 -1.5 -0.813 0.406 c 0.273 2.163 0.856 4.223 1.688 6.156 l 2.125 -1.063 0 -4 z" fill="#d0faff" fill-rule="nonzero" stroke="none" fill-opacity="1"/></svg>
